behance.svg

<svg xmlns="http://www.w3.org/2000/svg" width="24" height="24" viewBox="0 0 24 24"><path d="M8.228 15.01h-2.228v-2.01h2.261c1.878 0 2.003 2.01-.033 2.01zm6.758-2.677h3.018c-.117-1.715-2.73-1.977-3.018 0zm-6.804-3.333h-2.182v2h2.389c1.673 0 1.937-2-.207-2zm15.818-4v14c0 2.761-2.238 5-5 5h-14c-2.762 0-5-2.239-5-5v-14c0-2.761 2.238-5 5-5h14c2.762 0 5 2.239 5 5zm-10 3h5v-1h-5v1zm-3.552 3.618c1.907-.974 1.837-4.55-1.813-4.604h-4.635v9.978h4.311c4.522 0 4.445-4.534 2.137-5.374zm9.487.602c-.274-1.763-1.528-2.95-3.583-2.95-2.094 0-3.352 1.34-3.352 3.947 0 2.631 1.367 3.783 3.416 3.783s3.106-1.135 3.4-2h-2.111c-.736.855-2.893.521-2.767-1.353h5.06c.01-.634-.012-1.089-.063-1.427z"/></svg>

<svg width="24" height="24" viewBox="0 0 24 24" fill="none" xmlns="http://www.w3.org/2000/svg">
<path d="M8.228 15.01H6V13H8.261C10.139 13 10.264 15.01 8.228 15.01ZM14.986 12.333H18.004C17.887 10.618 15.274 10.356 14.986 12.333ZM8.182 9H6V11H8.389C10.062 11 10.326 9 8.182 9V9ZM24 5V19C24 21.761 21.762 24 19 24H5C2.238 24 0 21.761 0 19V5C0 2.239 2.238 0 5 0H19C21.762 0 24 2.239 24 5ZM14 8H19V7H14V8ZM10.448 11.618C12.355 10.644 12.285 7.068 8.635 7.014H4V16.992H8.311C12.833 16.992 12.756 12.458 10.448 11.618V11.618ZM19.935 12.22C19.661 10.457 18.407 9.27 16.352 9.27C14.258 9.27 13 10.61 13 13.217C13 15.848 14.367 17 16.416 17C18.465 17 19.522 15.865 19.816 15H17.705C16.969 15.855 14.812 15.521 14.938 13.647H19.998C20.008 13.013 19.986 12.558 19.935 12.22Z" fill="#303030"/>
</svg>
